X:1
T: Ich hab die Nacht getrumet
N: T0003A
O: Europa, Mitteleuropa, Deutschland
N: bekannt
R: Liebeslied
M: 6/8
L: 1/16
K: E
B,2 | E4F2=G3FE2 | B6F4
A2 | =G3FE2D4E2 | F6z4
B,2 | B4B2=G3FE2 | e6=c4
A2 | =G3FE2F3ED2 | E6z4

@@@ Tune index: 9677
